X: 1
T: Dobra nevesto   [Dm]
T: Sno\vsti e Dobra
O: Pirin, Macedonia
S: http://archive.folx.org/node/5036
L: 1/8
M: 7/8
K: Dm
"I"|: "Dm"A2G ABAG | "C"G2A "F"F2FE | "C"GFE ECEC |1 "Dm"D2C DEFG :|2 "Dm"D2A, D2z2 |]
"V"|: "Dm"D3 D2G2 | "Bb"GF2 E2D2 | "C"E3 C2D2 | "Dm"D3 D2z2 :|
"C"|: "C"C3 C2F2 | E3- E2D2 | E3 C2D2 | "Dm"D3 D2z2 :|

%%sep 1 1 500

